X:1
T:The Lowlands of Holland
M:4/4
L:1/8
K:F
 F| C3/2 D/2 F3/2 G/2 FF Fd| cA GF D3F/2-D/2| C/2 D3/2 F3/2 G/2 FF Fd|\
 cd/2-e/2 fA c2| z c|f-e dcd-cB-A| GAB/2-A/2G/2-F/2 D2 D3/2 F/2| C3/2- D/2 FF F2 F3/2 d/2|\
 c3/2 A/2 G3/2 A/2 F3||
